X: 19809
T: Jerrey Yn Theihll
R: reel
M: 4/4
K: Eminor
B,|EFGA BAGB|AGFA GFED|EFGA BAGB|A2 G2 F3B,|
EFGA BAGB|AGFA GFED|EFGA BAGB|A2 G2 F3F|
GE E/E/E CEB,E|GE E/E/E CEB,E|A2 AG FAGF|E2 ED E2 EF|
GE E/E/E CEB,E|GE E/E/E CEB,E|A2 AG FAGF|E2 D2 E3||

